X:1
T:Jubilate Deo
T:Domenico Obizzi
T:Source : Ghirlanda Sacra---Venetia---BMagni ( Ang.Gardano)---1625. Editor : André Vierendeels (05/10/18) Notes : Original clefs : C1, F4 Original note values have been quartered in 3-beat measures Music collected by Leonardo Simonetti Dotted brackets indicate black notes Figures in BC are notated in original print 
T:Jubilate Deo
T:©
T:©
T:©
T:©
T:©
T:©
T:©
C:Domenico Obizzi
Z:©
%%score 1 { 2 | 3 }
L:1/8
Q:1/4=120
M:4/4
K:C
V:1 treble nm="Soprano" snm="S"
V:2 treble nm="MusicXML Part"
V:3 bass 
V:1
 dddc BABA | eeed cBcA | edcB cABc | d2 c2 BAGF | GA ^F2 G2 AA | BB/B/ ^cc/c/ d2 d2 | dBeB c2 Bc | %7
w: Ju- bi- la- te, iu- bi- la- te|iu- bi- la- te, iu- bi- la- te,|iu- bi- la ta De- o o- mnis|ter- ra, o- mnis ter- ra|iu- bi- la- te, psal- mum|di- ci- te no- mi- ni e- ius,|da- te glo- ri- am lau- di|
 dc B2 c2 ed | cB B>A A2 d2- | d4- d/D/E/F/ G/A/B/c/ | de/f/ ed c4- | c2 B2 A4 | G8 | %13
w: e- ius, da- te, da- te|glo- ri- am Lau- * *|||* di e-|ius,|
[M:6/4] d3 c B2 d3 c B2 | A6 G6 | e3 d c2 e3 d c2 | B6 A6 | d3 c B2 A6 | G12 | %19
w: di- ci- te, di- ci- te|De- o,|di- ci- te, di- ci- te|De- o,|di- ci- te De-|o,|
[M:4/4] d>d d/d/d/A/ B2 c2 | c>c cc c3 B | c2 c2 cc cc/G/ | A2 d3 d d2 | e3 e e4 | d2 d2 d3 c | %25
w: quam ter- ri- bi- li- a sunt o-|pe- ra tu- a, Do- mi-|ne, quam ter- ri- bi- li- a|sunt o- pe- ra,|o- pe- ra|tu- a Do- mi-|
 ddcB BBcd | e2 d2 d4 | cABc dBcd | e2 G2 AABc | d2 d2 d2 ^c2 | d2 dA BcdB | edcB A4 | G4 G4 | %33
w: ne, in mul- ti- tu- di- ne vir-|tu- tis tu-|ae, in mul- ti- tu- i- di- ne|vir- tu- tis tu- ae men-|ti- en- tur t-|bi, men- ti- en- tur ti- bi|i- ni- mi- ci tu-|i, o-|
 A2 ^F2 G4 | G3 G GGG^F | A2 B2 c4 | B4 z ^GBA | c3 c de fe | d4 c4 | d2 A2 B2 A2 | G2 Ac c3 B | %41
w: * mnis ter-|ra, a- do- rer te et|psal- tat ti-|bi, a- do- rer|te et psal- * tat _|ti- bi,|psal- mum di- cat|no- mi- ni tu- *|
 c4 e2 B2 | c2 B2 A2 Bd | d3 ^c d4 | z2 AD G2 FF | EE^FG A3 G- | A4 z2 eA | d2 cB BBcd | e4 d4 | %49
w: o, psal- mum|di- cat ni- mi- ni|tu- * o,|be- ne- di- ci- te|gen- tes De- um _ strum,|_ be- ne-|di- ci- te gen- tes De- um|no- strum|
 BcdB c>B A2 | B2 G2 c2 A2 | dc c>B B2 A2 | ABBA B>A G2 | BcdB c>B A2 | BAAG G3 ^F | !fermata!G8 | %56
w: et au- di- tam fa- ci- te|vo- cem, vo- cem,|vo- cem la- dis e- ius,|et au- di- tam fa- ci- te|et au- di- tam fa- ci- te|vo- cem lau- dis e- *|ius.|
[M:6/4] GABc A2 B4 z2 | ABcd B2 ^c4 z2 | cdec dB c4 B2 | ABcA BG A4 G2 | FGAF GE F4 E2 | %61
w: Al- * * le- lu- ia,|al- * * le- lu- ia,|al- * * * le- * lu- ia,|al- * * * le- * lu- ia,|al- * * * le- * lu- ia,|
 DEFG E2 ^FGAB G2 | A4 A8 | G12 |] %64
w: al- * * le- lu- ia _ _ _ al-|le- lu-|ia.|
V:2
 z8 | z8 | z8 |"^BC" z8 | z8 | z8 | z8 | z8 | z8 | z8 | z8 | z8 | z8 |[M:6/4] z12 | z12 | z12 | %16
 z12 | z12 | z12 |[M:4/4] z8 | z8 | z8 | z8 | z8 | z8 | z8 | z8 | z8 | z8 | z8 | z8 | z8 | z8 | %33
 z8 | z8 | z8 | z8 | z8 | z8 | z8 | z8 | z8 | z8 | z8 | z8 | z8 | z8 | z8 | z8 | z8 | z8 | z8 | %52
 z8 | z8 | z8 | z8 |[M:6/4] z12 | z12 | z12 | z12 | z12 |"^#" z12 | z12 | z12 |] %64
V:3
 G,,8 | C,8 | C,4 C,2 A,,2 | G,,2 C,,2 G,,2 A,,2 | B,,2 D,2 G,,2 ^F,,2 | G,,2 A,,2 D,4 | %6
 G,2 ^G,2 A,2 =G,2 | F,2 G,2 C,2 ^G,,2 | A,,2 E,2 A,,2 G,,2 | ^F,,4 G,,4 | G,,4 C,4 | D,8 | G,,8 | %13
[M:6/4] G,,6 G,,6 | D,6 G,,6 | A,,6 A,,6 | E,6 A,,6 | B,,4 G,,2 D,6 | G,,12 |[M:4/4] D,4 G,2 E,2 | %20
 F,2 E,2 G,4 | C,8 | F,2 D,2 G,3 G, | ^G,2 A,3 A, A,2 | _B,2 G,2 A,3 A, | D,4 G,,4 | %26
 C,2 D,2 E,2 F,2 | C,2 A,,2 B,,2 G,,2 | C,2 E,2 D,2 C,2 | _B,,2 G,,2 A,,4 | D,4 G,,4 | C,4 D,4 | %32
 G,,4 G,,4 | A,,4 G,,4 | G,,8 | D,2 B,,2 A,,4 | E,4 E,4 | A,,4 G,,2 F,,2 | G,,4 C,4 | %39
 G,2 ^F,2 G,2 =F,2 | E,2 C,2 G,4 | C,4 A,2 ^G,2 | A,2 G,2 F,2 D,2 | G,2 A,2 D,4 | D,4 B,,4 | %45
 C,2 A,,2 E,4 | A,,4 A,4 | ^F,4 G,2 E,2 | A,4 D,4 | G,,4 C,2 D,2 | B,,2 E,2 C,2 F,2 | %51
 D,2 A,,2 E,2 A,,2 | D,4 G,,2 C,2 | G,,4 C,2 D,2 | B,,2 C,2 D,4 | !fermata!G,,8 | %56
[M:6/4] G,,4 D,2 G,,4 z2 | D,4 E,2 A,,6 | A,,4 B,,2 G,,4 G,,2 | F,4 G,2 F,4 E,2 | D,4 E,2 D,4 C,2 | %61
 D,4 A,,2 D,4 B,,2 | C,4 D,8 | G,,12 |] %64

